Origami/48x48/apps/unknown-horizons.svg

<svg width="48" height="48" version="1.1" viewBox="0 0 48 48" xmlns="http://www.w3.org/2000/svg">
 <path d="m30 33h-26s6 9 24 9c12 0 16-6 16-9 0-2.595311 0-4-2-4h-10c-2 0-2 1.601856-2 4z" style="opacity:.2"/>
 <path d="m30 32h-26s6 9 24 9c12 0 16-6 16-9 0-2.595311 0-4-2-4h-10c-2 0-2 1.601856-2 4z" style="fill:#784421"/>
 <path d="m28 11v22s-8-5.027-8-11.000001c0-5.972999 8-10.999999 8-10.999999z" style="opacity:.2"/>
 <path d="m28 10v22s-8-5.027-8-11.000001c0-5.972999 8-10.999999 8-10.999999z" style="fill:#cccccc"/>
 <path d="m28 11v-6l8 3z" style="opacity:.2"/>
 <path d="m28 10v-6l8 3z" style="fill:#c83737"/>
 <path d="m16 19v14s-6-3.199-6-7 6-7 6-7z" style="opacity:.2"/>
 <path d="m16 18v14s-6-3.199-6-7 6-7 6-7z" style="fill:#cccccc"/>
 <path d="m32 31s0-1 1-1 1 1 1 1v2h-2z" style="opacity:.4"/>
 <path d="m36 31s0-1 1-1 1 1 1 1v2h-2z" style="opacity:.4"/>
 <path d="m40 31s0-1 1-1 1 1 1 1v2h-2z" style="opacity:.4"/>
 <path d="m32 28c-2 0-2 1.601856-2 4h-26s0.3206346 0.42311 0.8496094 1h25.150391c0-2.398144 0-4 2-4h10c1.7639 0 1.959794 1.149118 1.984375 3.1875 0.003129-0.061293 0.015625-0.128462 0.015625-0.1875 0-2.595311 0-4-2-4z" style="fill:#ffffff;opacity:.1"/>
 <path d="m 28,10 c 0,0 -8,5.027001 -8,11 0,0.168563 0.02863,0.333036 0.04102,0.5 C 20.467422,15.750609 28,11 28,11 Z" style="fill:#ffffff;opacity:.1"/>
 <path d="m16 18s-6 3.199-6 7c0 0.168459 0.02435 0.334132 0.04687 0.5 0.485743-3.576671 5.95313-6.5 5.95313-6.5z" style="fill:#ffffff;opacity:.1"/>
 <path d="m28 4v1l6.666016 2.5 1.333984-0.5-8-3z" style="fill:#ffffff;opacity:.1"/>
</svg>

<svg xmlns="http://www.w3.org/2000/svg" width="48" height="48" version="1.1" viewBox="0 0 48 48">
 <path style="opacity:0.2" d="M 30,33 H 4 c 0,0 6,9 24,9 12,0 16,-6 16,-9 0,-2.595311 0,-4 -2,-4 H 32 c -2,0 -2,1.601856 -2,4 z"/>
 <path style="fill:#784421" d="M 30,32 H 4 c 0,0 6,9 24,9 12,0 16,-6 16,-9 0,-2.595311 0,-4 -2,-4 H 32 c -2,0 -2,1.601856 -2,4 z"/>
 <path style="opacity:0.2" d="M 28,11 V 33 C 28,33 20,27.973 20,21.999999 20,16.027 28,11 28,11 Z"/>
 <path style="fill:#cccccc" d="M 28,10 V 32 C 28,32 20,26.973 20,20.999999 20,15.027 28,10 28,10 Z"/>
 <path style="opacity:0.2" d="M 28,11 V 5 l 8,3 z"/>
 <path style="fill:#c83737" d="M 28,10 V 4 l 8,3 z"/>
 <path style="opacity:0.2" d="m 16,19 v 14 c 0,0 -6,-3.199 -6,-7 0,-3.801 6,-7 6,-7 z"/>
 <path style="fill:#cccccc" d="m 16,18 v 14 c 0,0 -6,-3.199 -6,-7 0,-3.801 6,-7 6,-7 z"/>
 <path style="opacity:0.4" d="m 32,31 c 0,0 0,-1 1,-1 1,0 1,1 1,1 v 2 h -2 z"/>
 <path style="opacity:0.4" d="m 36,31 c 0,0 0,-1 1,-1 1,0 1,1 1,1 v 2 h -2 z"/>
 <path style="opacity:0.4" d="m 40,31 c 0,0 0,-1 1,-1 1,0 1,1 1,1 v 2 h -2 z"/>
 <path style="opacity:0.1;fill:#ffffff" d="m 32,28 c -2,0 -2,1.601856 -2,4 H 4 c 0,0 0.3206346,0.42311 0.8496094,1 H 30 c 0,-2.398144 0,-4 2,-4 h 10 c 1.7639,0 1.959794,1.149118 1.984375,3.1875 C 43.987504,32.126207 44,32.059038 44,32 c 0,-2.595311 0,-4 -2,-4 z"/>
 <path style="opacity:0.1;fill:#ffffff" d="m 28,10 c 0,0 -8,5.027001 -8,11 0,0.168563 0.02863,0.333036 0.04102,0.5 C 20.467422,15.750609 28,11 28,11 Z"/>
 <path style="opacity:0.1;fill:#ffffff" d="m 16,18 c 0,0 -6,3.199 -6,7 0,0.168459 0.02435,0.334132 0.04687,0.5 C 10.532613,21.923329 16,19 16,19 Z"/>
 <path style="fill:#ffffff;opacity:0.1" d="M 28 4 L 28 5 L 34.666016 7.5 L 36 7 L 28 4 z"/>
</svg>
